img/papers/comments/Shape-input.svg

<svg width="595" height="130" viewBox="0 0 595 130" fill="none" xmlns="http://www.w3.org/2000/svg">
<path d="M11.5 46.1667V45.9325L11.3201 45.7826L0.781024 37L11.3201 28.2174L11.5 28.0675V27.8333V5C11.5 2.51472 13.5147 0.5 16 0.5H590C592.485 0.5 594.5 2.51472 594.5 5V125C594.5 127.485 592.485 129.5 590 129.5H16C13.5147 129.5 11.5 127.485 11.5 125V46.1667Z" fill="white" stroke="#D9DADB"/>
</svg>

<svg width="595" height="130" fill="none" xmlns="http://www.w3.org/2000/svg"><path d="M11.5 46.167v-.235l-.18-.15L.781 37l10.54-8.783.179-.15V5A4.5 4.5 0 0 1 16 .5h574a4.5 4.5 0 0 1 4.5 4.5v120a4.5 4.5 0 0 1-4.5 4.5H16a4.5 4.5 0 0 1-4.5-4.5V46.167Z" fill="#fff" stroke="#D9DADB"/></svg>
